X:1
T:Title
%%score { ( 1 3 ) | ( 2 4 ) }
L:1/8
M:4/4
K:Eb
V:1 treble nm="Grand Piano"
V:3 treble 
V:2 bass 
V:4 bass 
V:1
 z4 z2[Q:1/4=96] [B,EG][B,FA] | [B,GB][B,GB][B,GB][B,FA] [B,EG]2 [A,DF]2 | [G,E]6 [EGB]2 | %3
 [EAc][EAc][EAc][EAc] [CA]2 [EAc]2 | [EGB]6 [B,EG][B,FA] | [B,GB][B,GB][B,GB][B,GB] [Ac][GB]G[GB] | %6
[M:9/8] ccc d e2- eec |[M:4/4] [GB][Ac][GB][B,FA] [B,EG]2 [A,DF]2 |[M:3/4] [G,E]6 |[M:1/4] GA | %10
[M:4/4] z2 e2 [GB]2 z2 | c2 [Ece]2 EEee | dddd c2 [FAd]2 | [Ge]6 [EG][FA] | %14
[M:3/4] [GB][GB] [GB][GB] [Ac][GB] |[M:1/4] [EG][GB] |[M:9/8] ccc d e2- eec | %17
[M:4/4] [GB][Ac][GB][Ee] [EG]2 [A,DF]2 |[M:3/4] [G,E]6 |] %19
V:2
 z4 z2 E,E, | E,E,E,E, B,,2 B,,2 | E,6 E,2 | A,A,A,A, A,2 A,2 | E,6 E,E, | %5
 E,E,E,E, [E,E][E,E][E,E][E,E] | %6
[M:9/8][K:treble] [A,EA][A,EA][A,EA] [A,EA] [A,CA]2- [A,CA][A,CA][A,EA] | %7
[M:4/4][K:bass] [E,E][E,E][E,E]E, B,,2 B,,2 |[M:3/4] E,6 |[M:1/4][K:treble] EF | %10
[M:4/4] G4[K:bass] z4[K:treble] | A2 A,2 A,A,[A,CA][A,CA] | %12
 [B,A][B,A][B,A][B,A] [B,A]2[K:bass] [B,,B,]2 | [E,B,]6 [E,B,][E,B,] | %14
[M:3/4] [E,B,][E,B,] [E,B,][E,B,] [E,E][E,E] |[M:1/4] [E,B,][E,E] | %16
[M:9/8][K:treble] [A,EA][A,EA][A,EA] [A,EA] [A,CA]2- [A,CA][A,CA][A,EA] | %17
[M:4/4][K:bass] [E,E][E,E][E,E]G, B,2 B,,2 |[M:3/4] E,6 |] %19
V:3
 x8 | x8 | x8 | x8 | x8 | x8 |[M:9/8] x9 |[M:4/4] x8 |[M:3/4] x6 |[M:1/4] x2 | %10
[M:4/4] B2 z B, B,B, B2 | z4 [Ac]2 z2 | x8 | x8 |[M:3/4] x6 |[M:1/4] x2 |[M:9/8] x9 |[M:4/4] x8 | %18
[M:3/4] x6 |] %19
V:4
 x8 | x8 | x8 | x8 | x8 | x8 |[M:9/8][K:treble] x9 |[M:4/4][K:bass] x8 |[M:3/4] x6 | %9
[M:1/4][K:treble] x2 |[M:4/4] z2[K:bass] [E,B,]E, E,E,[K:treble] G2 | x8 | x6[K:bass] x2 | x8 | %14
[M:3/4] x6 |[M:1/4] x2 |[M:9/8][K:treble] x9 |[M:4/4][K:bass] x8 |[M:3/4] x6 |] %19

